X:1
T:Title
%%score ( 1 2 ) { ( 3 5 ) | 4 }
L:1/8
M:4/4
K:Eb
V:1 treble nm="Bright Piano"
V:2 treble 
V:3 bass nm="Bright Piano"
V:5 bass 
V:4 bass 
V:1
 z4 z2[Q:1/4=100] z F | [EG]2 [EA]2 [DB]2 [EB]2 | [Ec]2 [Fd]2 [Ge]2 E2 | [EG]2 [EA]2 [DB]2 [EB]2 | %4
 A-[DA] [EG]2 [DF]2 [EB]2 | [EG]2 [CE]2 [EA]2 [EG]2 |[M:3/4] F2- [DF]2 E2 |[M:1/4] z F | %8
[M:4/4] [EG]2 [EA]2 [DB]2 [EB]2 | [Ec]2 [Fd]2 [Ge]2 E2 | [EG]2 [EA]2 [DB]2 [EB]2 | %11
 A-[DA] [EG]2 [DF]2 [EB]2 | [EG]2 [CE]2 [EA]2 [EG]2 |[M:3/4] F2- [DF]2 E2 |[M:1/4] [DB]2 | %15
[M:4/4] [DF]2 [=EG]2 [FA]2 [FA]2 | [FG]2 [=EG]2 F2 [_EB]2 | [Ec]2 [Fd]2 [Ge]2 [EG]2 | %18
[M:3/4] [EF]2 [DF]2 E2 |] %19
V:2
 z4 z2 E2 | x8 | x8 | x8 | .C2 z2 z4 | x8 |[M:3/4] E2 z2 z2 |[M:1/4] E2 |[M:4/4] x8 | x8 | x8 | %11
 .C2 z2 z4 | x8 |[M:3/4] E2 z2 z2 |[M:1/4] x2 |[M:4/4] x8 | x8 | x8 |[M:3/4] x6 |] %19
V:3
 z4 z2 G,A, | B,2 C2 F,2 B,2 | z G, A,2 B,2 G,2 | B,2 A,2 A,2 G,2 | A,2 B,2 B,2 G,2 | %5
 B,2 G,2 C2 B,2 |[M:3/4] B,3 A, G,2 |[M:1/4] G,A, |[M:4/4] B,2 C2 F,2 B,2 | z G, A,2 B,2 G,2 | %10
 B,2 A,2 A,2 G,2 | A,2 B,2 B,2 G,2 | B,2 G,2 C2 B,2 |[M:3/4] B,3 A, G,2 |[M:1/4] B,2 | %15
[M:4/4] z A, B,2[K:treble] C2 C2 | C2 CB,[K:bass] A,2 B,2 | A,2 A,2 B,2 C2 |[M:3/4] C2 B,A, G,2 |] %19
V:4
 z4 z2 E,2 | E,2 C,2 B,,2 G,2 | z2 F,2 E,2 E,2 | _D,2 C,2 B,,2 E,2 | F,2 G,E, B,,2 E,2 | %5
 E,2 C,2 A,,2 E,2 |[M:3/4] B,,4 E,2 |[M:1/4] E,2 |[M:4/4] E,2 C,2 B,,2 G,2 | z2 F,2 E,2 E,2 | %10
 _D,2 C,2 B,,2 E,2 | F,2 G,E, B,,2 E,2 | E,2 C,2 A,,2 E,2 |[M:3/4] B,,4 E,2 |[M:1/4] B,,2 | %15
[M:4/4] z2 G,2 F,2 A,,B,, | C,2 C,2 F,2 G,2 | z2 F,2 E,2 C,2 |[M:3/4] A,,2 B,,2 E,2 |] %19
V:5
 x8 | x8 | A,2 z2 z4 | x8 | x8 | x8 |[M:3/4] x6 |[M:1/4] x2 |[M:4/4] x8 | A,2 z2 z4 | x8 | x8 | %12
 x8 |[M:3/4] x6 |[M:1/4] x2 |[M:4/4] B,2 z2[K:treble] z4 | x4[K:bass] x4 | x8 |[M:3/4] x6 |] %19

